; generated by Slic3r 1.3.0 on 2020-08-21 at 11:22:46

; external perimeters extrusion width = 0.50mm (2.80mm^3/s)
; perimeters extrusion width = 0.50mm (5.48mm^3/s)
; infill extrusion width = 0.50mm (7.31mm^3/s)
; solid infill extrusion width = 0.50mm (1.83mm^3/s)
; top infill extrusion width = 0.50mm (1.37mm^3/s)

M107
M190 S120 ; set bed temperature and wait for it to be reached
M104 S250 ; set temperature
G28 ; home all axes
G1 Z5 F5000 ; lift nozzle

; Filament gcode

M109 S250 ; set temperature and wait for it to be reached
G21 ; set units to millimeters
G90 ; use absolute coordinates
M82 ; use absolute distances for extrusion
G92 E0
G1 Z0.350 F7800.000
G1 E-2.00000 F2400.00000
G92 E0
G1 X8.774 Y14.033 F7800.000
G1 E2.00000 F2400.00000
G1 F1800
G1 X7.987 Y14.527 E2.03299
G1 X6.950 Y15.081 E2.07478
G1 X5.392 Y15.676 E2.13400
G1 X2.736 Y16.322 E2.23110
G1 X1.820 Y16.478 E2.26410
G1 X0.649 Y16.593 E2.30588
G1 X-1.017 Y16.546 E2.36510
G1 X-3.719 Y16.127 E2.46220
G1 X-4.624 Y15.920 E2.49520
G1 X-5.750 Y15.578 E2.53698
G1 X-7.272 Y14.898 E2.59620
G1 X-9.607 Y13.476 E2.69330
G1 X-10.365 Y12.938 E2.72630
G1 X-11.274 Y12.192 E2.76808
G1 X-12.419 Y10.981 E2.82730
G1 X-14.033 Y8.774 E2.92440
G1 X-14.527 Y7.987 E2.95740
G1 X-15.081 Y6.950 E2.99918
G1 X-15.676 Y5.392 E3.05840
G1 X-16.322 Y2.736 E3.15550
G1 X-16.478 Y1.820 E3.18850
G1 X-16.593 Y0.649 E3.23028
G1 X-16.546 Y-1.017 E3.28950
G1 X-16.127 Y-3.719 E3.38660
G1 X-15.920 Y-4.624 E3.41960
G1 X-15.578 Y-5.750 E3.46138
G1 X-14.898 Y-7.272 E3.52060
G1 X-13.476 Y-9.607 E3.61770
G1 X-12.938 Y-10.365 E3.65070
G1 X-12.192 Y-11.274 E3.69248
G1 X-10.981 Y-12.419 E3.75170
G1 X-8.774 Y-14.033 E3.84880
G1 X-7.987 Y-14.527 E3.88179
G1 X-6.950 Y-15.081 E3.92358
G1 X-5.392 Y-15.676 E3.98280
G1 X-2.736 Y-16.322 E4.07990
G1 X-1.820 Y-16.478 E4.11290
G1 X-0.649 Y-16.593 E4.15468
G1 X1.017 Y-16.546 E4.21390
G1 X3.719 Y-16.127 E4.31099
G1 X4.624 Y-15.920 E4.34400
G1 X5.750 Y-15.578 E4.38577
G1 X7.272 Y-14.898 E4.44500
G1 X9.607 Y-13.476 E4.54209
G1 X10.365 Y-12.938 E4.57509
G1 X11.274 Y-12.192 E4.61687
G1 X12.419 Y-10.981 E4.67609
G1 X14.033 Y-8.774 E4.77319
G1 X14.527 Y-7.987 E4.80620
G1 X15.081 Y-6.950 E4.84797
G1 X15.676 Y-5.392 E4.90719
G1 X16.322 Y-2.736 E5.00429
G1 X16.478 Y-1.820 E5.03729
G1 X16.593 Y-0.649 E5.07907
G1 X16.546 Y1.017 E5.13829
G1 X16.127 Y3.719 E5.23539
G1 X15.920 Y4.624 E5.26839
G1 X15.578 Y5.750 E5.31017
G1 X14.898 Y7.272 E5.36939
G1 X13.476 Y9.607 E5.46649
G1 X12.938 Y10.365 E5.49949
G1 X12.192 Y11.274 E5.54127
G1 X10.981 Y12.419 E5.60049
G1 X8.822 Y13.997 E5.69546
G1 E3.69546 F2400.00000
G92 E0
G1 X0.350 Y9.534 F7800.000
G1 E2.00000 F2400.00000
G1 F1800
G1 X0.350 Y8.691 E2.02996
G1 X0.517 Y8.640 E2.03617
G1 X1.562 Y8.081 E2.07825
G1 X2.295 Y9.178 E2.12510
G1 X1.102 Y9.540 E2.16938
G1 X0.350 Y9.614 E2.19622
G1 X0.350 Y9.594 E2.19692
G1 X0.551 Y9.188 F7800.000
G1 E0.19692 F2400.00000
G92 E0
G1 X1.902 Y7.959 F7800.000
G1 E2.00000 F2400.00000
G1 F1800
G1 X2.357 Y7.584 E2.03089
G1 X3.041 Y6.750 E2.08726
G1 X3.551 Y5.800 E2.14365
G1 X4.803 Y6.626 F7800.000
G1 F1800
G1 X5.080 Y6.104 E2.17453
G1 X5.394 Y5.073 E2.23091
G1 X5.500 Y4.000 E2.28730
G1 X6.973 Y4.283 F7800.000
G1 F1800
G1 X7.030 Y3.696 E2.31819
G1 X6.924 Y2.623 E2.37456
G1 X6.612 Y1.591 E2.43094
G1 X8.080 Y1.289 F7800.000
G1 F1800
G1 X7.906 Y0.725 E2.46204
G1 X7.401 Y-0.227 E2.51882
G1 X6.718 Y-1.061 E2.57562
G1 X7.958 Y-1.901 F7800.000
G1 F1800
G1 X7.582 Y-2.356 E2.60672
G1 X6.750 Y-3.041 E2.66350
G1 X5.800 Y-3.551 E2.72030
G1 X6.626 Y-4.803 F7800.000
G1 F1800
G1 X6.104 Y-5.080 E2.75119
G1 X5.073 Y-5.394 E2.80757
G1 X4.000 Y-5.500 E2.86395
G1 X4.283 Y-6.973 F7800.000
G1 F1800
G1 X3.696 Y-7.030 E2.89484
G1 X2.623 Y-6.924 E2.95122
G1 X1.591 Y-6.612 E3.00760
G1 X1.289 Y-8.080 F7800.000
G1 F1800
G1 X0.725 Y-7.907 E3.03870
G1 X-0.227 Y-7.401 E3.09548
G1 X-1.061 Y-6.718 E3.15228
G1 X-1.901 Y-7.958 F7800.000
G1 F1800
G1 X-2.356 Y-7.582 E3.18338
G1 X-3.041 Y-6.750 E3.24016
G1 X-3.551 Y-5.800 E3.29696
G1 X-4.803 Y-6.626 F7800.000
G1 F1800
G1 X-5.080 Y-6.104 E3.32785
G1 X-5.393 Y-5.073 E3.38423
G1 X-5.500 Y-4.000 E3.44061
G1 X-6.971 Y-4.283 F7800.000
G1 F1800
G1 X-7.027 Y-3.696 E3.47171
G1 X-6.924 Y-2.623 E3.52849
G1 X-6.612 Y-1.591 E3.58529
G1 X-8.080 Y-1.289 F7800.000
G1 F1800
G1 X-7.907 Y-0.725 E3.61616
G1 X-7.401 Y0.227 E3.67252
G1 X-6.718 Y1.061 E3.72890
G1 X-7.959 Y1.902 F7800.000
G1 F1800
G1 X-7.584 Y2.357 E3.75979
G1 X-6.750 Y3.041 E3.81617
G1 X-5.800 Y3.551 E3.87255
G1 X-6.626 Y4.803 F7800.000
G1 F1800
G1 X-6.104 Y5.080 E3.90344
G1 X-5.073 Y5.393 E3.95981
G1 X-4.000 Y5.500 E4.01619
G1 X-4.283 Y6.973 F7800.000
G1 F1800
G1 X-3.696 Y7.030 E4.04708
G1 X-2.623 Y6.924 E4.10346
G1 X-1.591 Y6.612 E4.15984
G1 X-1.289 Y8.080 F7800.000
G1 F1800
G1 X-0.725 Y7.906 E4.19071
G1 X0.227 Y7.401 E4.24707
G1 X1.061 Y6.718 E4.30345
G1 E2.30345 F2400.00000
G92 E0
G1 X-2.589 Y8.157 F7800.000
G1 E2.00000 F2400.00000
G1 F1800
G1 X-1.649 Y8.064 E2.03353
G1 X-1.392 Y9.357 E2.08037
G1 X-2.633 Y9.235 E2.12466
G1 X-3.356 Y9.016 E2.15149
G1 X-3.002 Y8.163 E2.18429
G1 X-2.828 Y8.180 E2.19050
G1 X-2.648 Y8.162 E2.19692
G1 X-2.365 Y8.488 F7800.000
G1 E0.19692 F2400.00000
G92 E0
G1 X-4.683 Y7.188 F7800.000
G1 E2.00000 F2400.00000
G1 F1800
G1 X-4.867 Y8.113 E2.03349
G1 X-5.966 Y7.525 E2.07777
G1 X-6.551 Y7.045 E2.10461
G1 X-5.898 Y6.393 E2.13740
G1 X-5.744 Y6.475 E2.14361
G1 X-4.610 Y6.819 E2.18569
G1 X-4.671 Y7.129 E2.19692
G1 X-4.984 Y7.451 F7800.000
G1 E0.19692 F2400.00000
G92 E0
G1 X-8.570 Y3.929 F7800.000
G1 E2.00000 F2400.00000
G1 F1800
G1 X-7.895 Y3.649 E2.02595
G1 X-7.784 Y3.784 E2.03215
G1 X-6.868 Y4.536 E2.07424
G1 X-7.601 Y5.632 E2.12108
G1 X-8.392 Y4.669 E2.16537
G1 X-8.748 Y4.002 E2.19220
G1 X-8.625 Y3.952 E2.19692
G1 X-8.177 Y4.001 F7800.000
G1 E0.19692 F2400.00000
G92 E0
G1 X-9.315 Y0.350 F7800.000
G1 E2.00000 F2400.00000
G1 F1800
G1 X-8.691 Y0.350 E2.02217
G1 X-8.640 Y0.517 E2.02838
G1 X-8.081 Y1.562 E2.07046
G1 X-9.178 Y2.295 E2.11731
G1 X-9.540 Y1.102 E2.16159
G1 X-9.614 Y0.350 E2.18842
G1 X-9.375 Y0.350 E2.19692
G1 X-8.989 Y0.583 F7800.000
G1 E0.19692 F2400.00000
G92 E0
G1 X-9.302 Y-1.957 F7800.000
G1 E2.00000 F2400.00000
G1 F1800
G1 X-9.235 Y-2.633 E2.02413
G1 X-9.016 Y-3.356 E2.05097
G1 X-8.163 Y-3.002 E2.08376
G1 X-8.180 Y-2.828 E2.08997
G1 X-8.064 Y-1.649 E2.13205
G1 X-9.357 Y-1.392 E2.17890
G1 X-9.308 Y-1.897 E2.19692
G1 X-9.053 Y-2.270 F7800.000
G1 E0.19692 F2400.00000
G92 E0
G1 X-6.773 Y-4.763 F7800.000
G1 E2.00000 F2400.00000
G1 F1800
G1 X-6.819 Y-4.610 E2.00568
G1 X-8.112 Y-4.867 E2.05252
G1 X-7.525 Y-5.966 E2.09680
G1 X-7.045 Y-6.551 E2.12364
G1 X-6.393 Y-5.898 E2.15643
G1 X-6.475 Y-5.744 E2.16264
G1 X-6.755 Y-4.820 E2.19692
G1 X-6.929 Y-4.728 F7800.000
G1 E0.19692 F2400.00000
G92 E0
G1 X-3.810 Y-7.753 F7800.000
G1 E2.00000 F2400.00000
G1 F1800
G1 X-4.536 Y-6.868 E2.04065
G1 X-5.632 Y-7.601 E2.08749
G1 X-4.669 Y-8.392 E2.13178
G1 X-4.002 Y-8.748 E2.15861
G1 X-3.649 Y-7.895 E2.19141
G1 X-3.769 Y-7.797 E2.19692
G1 X-4.207 Y-7.701 F7800.000
G1 E0.19692 F2400.00000
G92 E0
G1 X-1.043 Y-8.359 F7800.000
G1 E2.00000 F2400.00000
G1 F1800
G1 X-1.562 Y-8.081 E2.02092
G1 X-2.295 Y-9.178 E2.06777
G1 X-1.102 Y-9.540 E2.11205
G1 X-0.350 Y-9.614 E2.13888
G1 X-0.350 Y-8.691 E2.17168
G1 X-0.517 Y-8.640 E2.17789
G1 X-0.990 Y-8.387 E2.19692
G1 X-1.379 Y-8.575 F7800.000
G1 E0.19692 F2400.00000
G92 E0
G1 X1.681 Y-8.067 F7800.000
G1 E2.00000 F2400.00000
G1 F1800
G1 X1.649 Y-8.064 E2.00112
G1 X1.392 Y-9.357 E2.04796
G1 X2.633 Y-9.235 E2.09224
G1 X3.356 Y-9.016 E2.11908
G1 X3.002 Y-8.163 E2.15187
G1 X2.828 Y-8.180 E2.15808
G1 X1.740 Y-8.073 E2.19692
G1 X1.662 Y-8.093 F7800.000
G1 E0.19692 F2400.00000
G92 E0
G1 X5.267 Y-7.898 F7800.000
G1 E2.00000 F2400.00000
G1 F1800
G1 X5.966 Y-7.525 E2.02815
G1 X6.551 Y-7.045 E2.05499
G1 X5.898 Y-6.393 E2.08778
G1 X5.744 Y-6.475 E2.09399
G1 X4.610 Y-6.819 E2.13608
G1 X4.867 Y-8.112 E2.18292
G1 X5.215 Y-7.927 E2.19692
G1 X5.472 Y-7.555 F7800.000
G1 E0.19692 F2400.00000
G92 E0
G1 X8.431 Y-4.595 F7800.000
G1 E2.00000 F2400.00000
G1 F1800
G1 X8.748 Y-4.002 E2.02387
G1 X7.895 Y-3.649 E2.05666
G1 X7.784 Y-3.784 E2.06287
G1 X6.868 Y-4.536 E2.10495
G1 X7.601 Y-5.632 E2.15180
G1 X8.403 Y-4.648 E2.19690
G1 X8.241 Y-4.243 F7800.000
G1 E0.19690 F2400.00000
G92 E0
G1 X8.251 Y-1.676 F7800.000
G1 E2.00000 F2400.00000
G1 F1800
G1 X9.178 Y-2.295 E2.03958
G1 X9.540 Y-1.102 E2.08387
G1 X9.614 Y-0.350 E2.11070
G1 X8.691 Y-0.350 E2.14350
G1 X8.640 Y-0.517 E2.14971
G1 X8.081 Y-1.562 E2.19179
G1 X8.201 Y-1.642 E2.19692
G1 X8.651 Y-1.667 F7800.000
G1 E0.19692 F2400.00000
G92 E0
G1 X8.172 Y2.747 F7800.000
G1 E2.00000 F2400.00000
G1 F1800
G1 X8.064 Y1.649 E2.03919
G1 X9.357 Y1.392 E2.08603
G1 X9.235 Y2.633 E2.13031
G1 X9.016 Y3.356 E2.15715
G1 X8.163 Y3.002 E2.18995
G1 X8.178 Y2.807 E2.19691
G1 X8.507 Y2.529 F7800.000
G1 E0.19691 F2400.00000
G92 E0
G1 X7.638 Y5.755 F7800.000
G1 E2.00000 F2400.00000
G1 F1800
G1 X7.525 Y5.966 E2.00853
G1 X7.045 Y6.551 E2.03536
G1 X6.393 Y5.898 E2.06816
G1 X6.475 Y5.744 E2.07437
G1 X6.819 Y4.610 E2.11645
G1 X8.112 Y4.867 E2.16330
G1 X7.666 Y5.702 E2.19692
G1 X7.417 Y5.849 F7800.000
G1 E0.19692 F2400.00000
G92 E0
G1 X5.192 Y7.307 F7800.000
G1 E2.00000 F2400.00000
G1 F1800
G1 X5.632 Y7.601 E2.01880
G1 X4.669 Y8.392 E2.06308
G1 X4.002 Y8.748 E2.08992
G1 X3.649 Y7.895 E2.12271
G1 X3.784 Y7.784 E2.12892
G1 X4.536 Y6.868 E2.17100
G1 X5.143 Y7.274 E2.19692
G1 X5.287 Y7.696 F7800.000
M104 S240 ; set temperature
M140 S110 ; set bed temperature
G1 Z0.550 F7800.000
G1 X5.198 Y7.191 F7800.000
G1 F1836
G1 X4.891 Y6.986 E2.20240
G1 X5.311 Y6.200 E2.21562
G1 X5.638 Y5.122 E2.23235
G1 X5.724 Y4.250 E2.24535
G1 X5.227 Y4.250 E2.25274
G1 X5.150 Y5.024 E2.26429
G1 X4.851 Y6.010 E2.27958
G1 X4.366 Y6.917 E2.29486
G1 X3.713 Y7.713 E2.31014
G1 X2.917 Y8.366 E2.32543
G1 X2.148 Y8.778 E2.33838
G1 X1.846 Y8.326 E2.34645
G1 X2.534 Y7.761 E2.35968
G1 X3.249 Y6.889 E2.37641
G1 X3.662 Y6.117 E2.38941
G1 X3.202 Y5.927 E2.39680
G1 X2.835 Y6.613 E2.40835
G1 X2.182 Y7.409 E2.42363
G1 X1.387 Y8.062 E2.43892
G1 X0.479 Y8.547 E2.45420
G1 X-0.506 Y8.846 E2.46948
G1 X-1.375 Y8.931 E2.48244
G1 X-1.481 Y8.398 E2.49051
G1 X-0.628 Y8.140 E2.50373
G1 X0.365 Y7.608 E2.52047
G1 X1.042 Y7.053 E2.53347
G1 X0.691 Y6.701 E2.54085
G1 X0.089 Y7.195 E2.55241
G1 X-0.819 Y7.680 E2.56769
G1 X-1.804 Y7.979 E2.58297
G1 X-2.828 Y8.080 E2.59826
G1 X-3.853 Y7.979 E2.61354
G1 X-4.688 Y7.725 E2.62650
G1 X-4.582 Y7.192 E2.63457
G1 X-3.696 Y7.280 E2.64779
G1 X-2.574 Y7.169 E2.66452
G1 X-1.736 Y6.915 E2.67752
G1 X-1.926 Y6.455 E2.68491
G1 X-2.671 Y6.681 E2.69646
G1 X-3.696 Y6.782 E2.71175
G1 X-4.720 Y6.681 E2.72703
G1 X-5.705 Y6.382 E2.74231
G1 X-6.613 Y5.897 E2.75760
G1 X-7.288 Y5.343 E2.77055
G1 X-6.986 Y4.891 E2.77862
G1 X-6.200 Y5.311 E2.79185
G1 X-5.122 Y5.638 E2.80858
G1 X-4.250 Y5.724 E2.82158
G1 X-4.250 Y5.227 E2.82897
G1 X-5.024 Y5.150 E2.84052
G1 X-6.010 Y4.851 E2.85580
G1 X-6.917 Y4.366 E2.87109
G1 X-7.713 Y3.713 E2.88637
G1 X-8.366 Y2.917 E2.90165
G1 X-8.778 Y2.148 E2.91461
G1 X-8.326 Y1.846 E2.92268
G1 X-7.761 Y2.534 E2.93591
G1 X-6.889 Y3.249 E2.95264
G1 X-6.117 Y3.662 E2.96564
G1 X-5.927 Y3.202 E2.97303
G1 X-6.613 Y2.835 E2.98458
G1 X-7.409 Y2.182 E2.99986
G1 X-8.062 Y1.387 E3.01514
G1 X-8.547 Y0.479 E3.03043
G1 X-8.846 Y-0.506 E3.04571
G1 X-8.931 Y-1.375 E3.05867
G1 X-8.398 Y-1.481 E3.06674
G1 X-8.140 Y-0.628 E3.07996
G1 X-7.608 Y0.365 E3.09669
G1 X-7.053 Y1.042 E3.10970
G1 X-6.701 Y0.691 E3.11708
G1 X-7.195 Y0.089 E3.12864
G1 X-7.680 Y-0.819 E3.14392
G1 X-7.979 Y-1.804 E3.15920
G1 X-8.080 Y-2.828 E3.17448
G1 X-7.979 Y-3.853 E3.18977
G1 X-7.725 Y-4.688 E3.20272
G1 X-7.192 Y-4.582 E3.21080
G1 X-7.280 Y-3.696 E3.22402
G1 X-7.169 Y-2.574 E3.24075
G1 X-6.915 Y-1.736 E3.25375
G1 X-6.455 Y-1.926 E3.26114
G1 X-6.681 Y-2.671 E3.27269
G1 X-6.782 Y-3.696 E3.28798
G1 X-6.681 Y-4.720 E3.30326
G1 X-6.382 Y-5.705 E3.31854
G1 X-5.897 Y-6.613 E3.33382
G1 X-5.343 Y-7.288 E3.34678
G1 X-4.891 Y-6.986 E3.35485
G1 X-5.311 Y-6.200 E3.36808
G1 X-5.638 Y-5.122 E3.38481
G1 X-5.724 Y-4.250 E3.39781
G1 X-5.227 Y-4.250 E3.40520
G1 X-5.150 Y-5.024 E3.41675
G1 X-4.851 Y-6.010 E3.43203
G1 X-4.366 Y-6.917 E3.44732
G1 X-3.713 Y-7.713 E3.46260
G1 X-2.917 Y-8.366 E3.47788
G1 X-2.148 Y-8.778 E3.49084
G1 X-1.846 Y-8.326 E3.49891
G1 X-2.534 Y-7.761 E3.51213
G1 X-3.249 Y-6.889 E3.52886
G1 X-3.662 Y-6.117 E3.54187
G1 X-3.202 Y-5.927 E3.54925
G1 X-2.835 Y-6.613 E3.56081
G1 X-2.182 Y-7.409 E3.57609
G1 X-1.387 Y-8.062 E3.59137
G1 X-0.479 Y-8.547 E3.60666
G1 X0.506 Y-8.846 E3.62194
G1 X1.375 Y-8.931 E3.63490
G1 X1.481 Y-8.398 E3.64297
G1 X0.628 Y-8.140 E3.65619
G1 X-0.365 Y-7.608 E3.67292
G1 X-1.042 Y-7.053 E3.68592
G1 X-0.691 Y-6.701 E3.69331
G1 X-0.089 Y-7.195 E3.70486
G1 X0.819 Y-7.680 E3.72015
G1 X1.804 Y-7.979 E3.73543
G1 X2.828 Y-8.080 E3.75071
G1 X3.853 Y-7.979 E3.76600
G1 X4.688 Y-7.725 E3.77895
G1 X4.582 Y-7.192 E3.78702
G1 X3.696 Y-7.280 E3.80025
G1 X2.574 Y-7.169 E3.81698
G1 X1.736 Y-6.915 E3.82998
G1 X1.926 Y-6.455 E3.83737
G1 X2.671 Y-6.681 E3.84892
G1 X3.696 Y-6.782 E3.86420
G1 X4.720 Y-6.681 E3.87949
G1 X5.705 Y-6.382 E3.89477
G1 X6.613 Y-5.897 E3.91005
G1 X7.288 Y-5.343 E3.92301
G1 X6.986 Y-4.891 E3.93108
G1 X6.200 Y-5.311 E3.94430
G1 X5.122 Y-5.638 E3.96104
G1 X4.250 Y-5.724 E3.97404
G1 X4.250 Y-5.227 E3.98142
G1 X5.024 Y-5.150 E3.99298
G1 X6.010 Y-4.851 E4.00826
G1 X6.917 Y-4.366 E4.02354
G1 X7.713 Y-3.713 E4.03883
G1 X8.366 Y-2.917 E4.05411
G1 X8.778 Y-2.148 E4.06707
G1 X8.326 Y-1.846 E4.07514
G1 X7.761 Y-2.534 E4.08836
G1 X6.889 Y-3.249 E4.10509
G1 X6.117 Y-3.662 E4.11809
G1 X5.927 Y-3.202 E4.12548
G1 X6.613 Y-2.835 E4.13703
G1 X7.409 Y-2.182 E4.15232
G1 X8.062 Y-1.387 E4.16760
G1 X8.547 Y-0.479 E4.18288
G1 X8.846 Y0.506 E4.19817
G1 X8.931 Y1.375 E4.21112
G1 X8.398 Y1.481 E4.21919
G1 X8.140 Y0.628 E4.23242
G1 X7.608 Y-0.365 E4.24915
G1 X7.053 Y-1.042 E4.26215
G1 X6.701 Y-0.691 E4.26954
G1 X7.195 Y-0.089 E4.28109
G1 X7.680 Y0.819 E4.29637
G1 X7.979 Y1.804 E4.31166
G1 X8.080 Y2.828 E4.32694
G1 X7.979 Y3.853 E4.34222
G1 X7.725 Y4.688 E4.35518
G1 X7.192 Y4.582 E4.36325
G1 X7.280 Y3.696 E4.37648
G1 X7.169 Y2.574 E4.39321
G1 X6.915 Y1.736 E4.40621
G1 X6.455 Y1.926 E4.41359
G1 X6.681 Y2.671 E4.42515
G1 X6.782 Y3.696 E4.44043
G1 X6.681 Y4.720 E4.45571
G1 X6.382 Y5.705 E4.47100
G1 X5.897 Y6.613 E4.48628
G1 X5.343 Y7.288 E4.49924
G1 X5.248 Y7.224 E4.50094
G1 X4.964 Y7.476 F7800.000
G1 E2.50094 F2400.00000
G92 E0
G1 X-1.032 Y-9.188 F7800.000
G1 E2.00000 F2400.00000
G1 F900
G1 X-0.707 Y-9.220 E2.00485
G1 X-0.707 Y-8.943 E2.00895
G1 X-1.445 Y-8.549 E2.02138
G1 X-1.731 Y-8.976 E2.02900
G1 X-1.089 Y-9.170 E2.03895
G1 X2.415 Y-8.898 F7800.000
G1 F900
G1 X2.563 Y-8.883 E2.04115
G1 X2.875 Y-8.789 E2.04599
G1 X2.769 Y-8.533 E2.05010
G1 X1.936 Y-8.451 E2.06252
G1 X1.836 Y-8.955 E2.07015
G1 X2.356 Y-8.904 E2.07790
G1 X5.977 Y-7.054 F7800.000
G1 F900
G1 X6.019 Y-7.019 E2.07872
G1 X5.824 Y-6.824 E2.08282
G1 X5.023 Y-7.067 E2.09525
G1 X5.123 Y-7.571 E2.10287
G1 X5.767 Y-7.226 E2.11371
G1 X5.931 Y-7.092 E2.11685
G1 X8.181 Y-4.305 F7800.000
G1 F900
G1 X8.247 Y-4.182 E2.11894
G1 X7.992 Y-4.076 E2.12305
G1 X7.345 Y-4.607 E2.13547
G1 X7.630 Y-5.034 E2.14310
G1 X8.094 Y-4.469 E2.15393
G1 X8.153 Y-4.358 E2.15580
G1 X8.874 Y-0.837 F7800.000
G1 F900
G1 X8.549 Y-1.445 E2.16604
G1 X8.976 Y-1.731 E2.17367
G1 X9.188 Y-1.032 E2.18451
G1 X9.220 Y-0.707 E2.18935
G1 X8.943 Y-0.707 E2.19346
G1 X8.902 Y-0.784 E2.19475
G1 X8.514 Y2.579 F7800.000
G1 F900
G1 X8.451 Y1.936 E2.20434
G1 X8.955 Y1.836 E2.21197
G1 X8.883 Y2.563 E2.22280
G1 X8.789 Y2.875 E2.22765
G1 X8.533 Y2.769 E2.23176
G1 X8.520 Y2.639 E2.23371
G1 X7.320 Y5.073 F7800.000
G1 F900
G1 X7.571 Y5.123 E2.23750
G1 X7.226 Y5.767 E2.24834
G1 X7.019 Y6.019 E2.25319
G1 X6.824 Y5.824 E2.25730
G1 X7.067 Y5.023 E2.26972
G1 X7.261 Y5.062 E2.27266
G1 E0.27266 F2400.00000
G92 E0
G1 X4.183 Y7.861 F7800.000
G1 E2.00000 F2400.00000
G1 F900
G1 X4.607 Y7.345 E2.00992
G1 X5.034 Y7.630 E2.01755
G1 X4.469 Y8.094 E2.02838
G1 X4.182 Y8.247 E2.03323
G1 X4.076 Y7.992 E2.03734
G1 X4.145 Y7.908 E2.03895
G1 X1.538 Y8.688 F7800.000
G1 F900
